X: 1
T: Young Black Cow, The
Z: Pierre Commes
S: https://thesession.org/tunes/16179#setting30551
R: waltz
M: 3/4
L: 1/8
K: Emin
|:Bd|e2 ef gf|e2 d2 D2|c4 BA |B4 Bd|
e2 ef gf|ed BA GB |A2 G2 (E2 | E4) :|
|:EG|A2 Ac BA|A2 G2 AB|c4 BA|B4|
Bd|e2 ef gf|ed BA GB|A2 G2 (E2 | E4) :|
